X: 36476
T: Seisiún Indeed In Doolin
R: reel
M: 4/4
K: Eminor
|{f}~e2 dB dedB|~A2 AB GABd|{f}edef gedc|BG{A}~G2 GBcB|
AE ~E2 A3 B|GABd {f}edBd|{f}edef gedB|{c}BA{B}AG A2 Bd:|
|:{f}edeg ~a3 b|c'bag egdg|egab gd ~d2{ed}|egab ~g2 ag|
~e2 dB {G}A3 B|degb {g}aged|{f}edef gedB|{c}BA{B}AG A2 Bd:|

